docs/graphics/color-examples/colorEase.svg

<svg width="103" height="129" viewBox="0 0 103 129" fill="none" xmlns="http://www.w3.org/2000/svg">
<rect width="102" height="129" rx="18.9762" fill="white"/>
<path d="M102.019 40.9924L81.6731 40.9924C82.5008 28.4058 91.2349 18.4371 102.019 18L102.019 40.9924Z" fill="#75BFFF"/>
<path d="M102.019 41.0074L81.6731 41.0074C82.5008 53.5942 91.2348 63.5629 102.019 64L102.019 41.0074Z" fill="#00422C"/>
<path fill-rule="evenodd" clip-rule="evenodd" d="M54.5724 62V70.4268L54.5724 70.4268V79.4154C54.5724 86.2412 60.1059 91.7746 66.9317 91.7746C73.7575 91.7746 79.2909 86.2412 79.2909 79.4154V70.4268H79.2906L79.2909 70.4268V62L70.8641 70.4268H62.9992L54.5724 62ZM64.1226 79.977C65.0534 79.977 65.8079 79.2225 65.8079 78.2917C65.8079 77.3609 65.0534 76.6063 64.1226 76.6063C63.1918 76.6063 62.4372 77.3609 62.4372 78.2917C62.4372 79.2225 63.1918 79.977 64.1226 79.977ZM72.5494 78.2917C72.5494 79.2225 71.7948 79.977 70.864 79.977C69.9332 79.977 69.1787 79.2225 69.1787 78.2917C69.1787 77.3609 69.9332 76.6063 70.864 76.6063C71.7948 76.6063 72.5494 77.3609 72.5494 78.2917ZM21.992 114.808V82.786C21.992 80.5389 18.3366 79.4153 16.0532 78.8535C13.199 78.1513 12.6281 74.921 13.1989 73.2357C13.7698 71.5503 14.9115 70.9886 17.1949 70.9886C19.4783 70.9886 29.1827 73.2357 29.1827 80.5389V94.0217C29.296 93.8731 29.4128 93.7186 29.5336 93.5588L29.5339 93.5585C32.4563 89.6933 37.6789 82.786 50.3042 82.786C50.6079 82.786 50.9116 82.7901 51.2149 82.7983C51.2059 82.9805 51.2013 83.1637 51.2013 83.3478C51.2013 90.1737 57.4893 95.7071 65.2459 95.7071C67.3778 95.7071 69.3987 95.2891 71.2086 94.5412L71.2187 94.5835H71.4255V95.7068L71.4256 95.7071L71.4255 95.7071V123.796H62.437V102.784L47.1645 114.808H50.078C52.5601 114.808 54.5723 116.82 54.5723 119.302V122.023C54.5723 123.002 53.7784 123.796 52.799 123.796H30.9773C26.3936 123.796 22.6112 120.365 22.0583 115.931H21.992V115.05C21.9898 114.97 21.9888 114.889 21.9888 114.808H21.992Z" fill="#009990"/>
<path fill-rule="evenodd" clip-rule="evenodd" d="M25.9953 23.2891C25.215 16.7863 32.7583 10.2835 38.2206 11.0639L38.2206 11.0639V44.2568C38.2206 46.3239 36.5449 47.9997 34.4777 47.9997C32.2906 47.9997 30.5694 46.1326 30.747 43.9528L31.5889 33.6212C29.3694 31.5266 26.5175 27.6408 25.9953 23.2891ZM17.932 11.0639H14.2904V23.029H12.2095V11.0639H8.568L8.01356 20.6279C7.79031 24.4789 10.3485 27.8174 13.9032 28.7517H12.7298L11.8554 44.927C11.7652 46.5966 13.0947 48 14.7668 48H17.1537C18.8413 48 20.1765 46.5716 20.0627 44.8878L18.9724 28.7517H17.9486C21.6207 27.7866 24.2127 24.2586 23.8098 20.2867L22.8741 11.0639H20.0129V23.029H17.932V11.0639Z" fill="#009990"/>
</svg>

<svg xmlns="http://www.w3.org/2000/svg" width="103" height="129" fill="none"><rect width="102" height="129" fill="#fff" rx="18.976"/><path fill="#75BFFF" d="M102.019 40.992H81.673C82.501 28.406 91.235 18.437 102.02 18v22.992Z"/><path fill="#00422C" d="M102.019 41.007H81.673C82.501 53.594 91.235 63.563 102.02 64V41.007Z"/><path fill="#009990" fill-rule="evenodd" d="M54.572 62v17.415c0 6.826 5.534 12.36 12.36 12.36 6.825 0 12.359-5.534 12.359-12.36V62l-8.427 8.427H63L54.572 62Zm9.55 17.977a1.685 1.685 0 1 0 0-3.37 1.685 1.685 0 0 0 0 3.37Zm8.427-1.685a1.685 1.685 0 1 1-3.37 0 1.685 1.685 0 0 1 3.37 0Zm-50.557 36.516V82.786c0-2.247-3.655-3.37-5.939-3.933-2.854-.702-3.425-3.932-2.854-5.617.57-1.686 1.713-2.247 3.996-2.247s11.988 2.247 11.988 9.55v13.483l.35-.463c2.923-3.866 8.146-10.773 20.771-10.773.304 0 .608.004.91.012-.008.183-.013.366-.013.55 0 6.826 6.288 12.36 14.045 12.36 2.132 0 4.153-.419 5.963-1.167l.01.043h.207v29.212h-8.989v-21.012l-15.273 12.024h2.914a4.494 4.494 0 0 1 4.494 4.494v2.721c0 .979-.794 1.773-1.773 1.773H30.977a8.99 8.99 0 0 1-8.919-7.865h-.066v-.881a8.823 8.823 0 0 1-.003-.242h.003ZM25.995 23.29c-.78-6.504 6.763-13.006 12.226-12.226v33.193a3.743 3.743 0 1 1-7.474-.304l.842-10.332c-2.22-2.094-5.072-5.98-5.594-10.332Zm-8.063-12.226H14.29v11.965h-2.08V11.064H8.568l-.554 9.564c-.224 3.85 2.335 7.19 5.89 8.124H12.73l-.875 16.175A2.916 2.916 0 0 0 14.767 48h2.387a2.916 2.916 0 0 0 2.909-3.112l-1.09-16.136h-1.024c3.672-.965 6.264-4.493 5.86-8.465l-.935-9.223h-2.861v11.965h-2.081V11.064Z" clip-rule="evenodd"/></svg>
